X:9
T:NO.29 The Rising Of The Sun
C:reel
M:4/4
L:1/8
K:A
af||eA (3cBA eAAf|eAca fedc|
Bcde fBBa|fBBa fefa|
eA (3cBA eAAf|eAca fedc|
Bcde fdfa|[1edcB Aagf:|
|[2edcB Aefg||aA (3cBA eAce|
agae fedc|Bcde fBBa|
fBBa fefg|aA (3AAA eAce|
abae fedc|Bcde fdfa|
|[1edcB Aefg:|[2edcB Abaf||
